X:1
T: Come with me now
C:
R:Jig
Q:180
K:D
M:6/8
L:1/16
AG|F2D2D2 F4d2|c2A2A2 B2A2G2|A2F2D2 F4d2|c2A2F2 G2A2G2|F2D2D2 F4d2|c2A2A2 c2d2e2|f2g2e2 c2A2G2|E2D2D2 D4AG|
F2D2D2 F4d2|c2A2A2 B2A2G2|A2F2D2 F4d2|c2A2F2 G2A2G2|F2D2D2 F4d2|c2A2A2 c2d2e2|f2g2e2 c2A2G2|E2D2D2 D4A2|
c2B2A2 f2e2d2|c2A2A2 A4B2|c2B2A2 f2e2d2|c2A2F2 G4A2|c2B2A2 f2e2d2|c2A2A2 c2d2e2|f2g2e2 c2A2G2|E2D2D2 D4A2|
c2B2A2 f2e2d2|c2A2A2 A4B2|c2B2A2 f2e2d2|c2A2F2 G4A2|c2B2A2 f2e2d2|c2A2A2 c2d2e2|f2g2e2 c2A2G2|E2D2D2 D4||
